packages/assets/static/images/icons/bold/expand--bold.svg

<svg width="24" height="24" viewBox="0 0 24 24" xmlns="http://www.w3.org/2000/svg">
<path d="M21.125 4.5V9C21.125 9.29837 21.0065 9.58452 20.7955 9.7955C20.5845 10.0065 20.2984 10.125 20 10.125C19.7016 10.125 19.4155 10.0065 19.2045 9.7955C18.9935 9.58452 18.875 9.29837 18.875 9V7.21875L15.5459 10.5487C15.3346 10.7601 15.0479 10.8788 14.7491 10.8788C14.4502 10.8788 14.1635 10.7601 13.9522 10.5487C13.7408 10.3374 13.6221 10.0508 13.6221 9.75187C13.6221 9.45299 13.7408 9.16634 13.9522 8.955L17.2812 5.625H15.5C15.2016 5.625 14.9155 5.50647 14.7045 5.2955C14.4935 5.08452 14.375 4.79837 14.375 4.5C14.375 4.20163 14.4935 3.91548 14.7045 3.7045C14.9155 3.49353 15.2016 3.375 15.5 3.375H20C20.2984 3.375 20.5845 3.49353 20.7955 3.7045C21.0065 3.91548 21.125 4.20163 21.125 4.5ZM9.45406 13.4541L6.125 16.7812V15C6.125 14.7016 6.00647 14.4155 5.7955 14.2045C5.58452 13.9935 5.29837 13.875 5 13.875C4.70163 13.875 4.41548 13.9935 4.2045 14.2045C3.99353 14.4155 3.875 14.7016 3.875 15V19.5C3.875 19.7984 3.99353 20.0845 4.2045 20.2955C4.41548 20.5065 4.70163 20.625 5 20.625H9.5C9.79837 20.625 10.0845 20.5065 10.2955 20.2955C10.5065 20.0845 10.625 19.7984 10.625 19.5C10.625 19.2016 10.5065 18.9155 10.2955 18.7045C10.0845 18.4935 9.79837 18.375 9.5 18.375H7.71875L11.0487 15.0459C11.2601 14.8346 11.3788 14.5479 11.3788 14.2491C11.3788 13.9502 11.2601 13.6635 11.0487 13.4522C10.8374 13.2408 10.5508 13.1221 10.2519 13.1221C9.95299 13.1221 9.66634 13.2408 9.455 13.4522L9.45406 13.4541ZM20 13.875C19.7016 13.875 19.4155 13.9935 19.2045 14.2045C18.9935 14.4155 18.875 14.7016 18.875 15V16.7812L15.5459 13.4513C15.3346 13.2399 15.0479 13.1212 14.7491 13.1212C14.4502 13.1212 14.1635 13.2399 13.9522 13.4513C13.7408 13.6626 13.6221 13.9492 13.6221 14.2481C13.6221 14.547 13.7408 14.8337 13.9522 15.045L17.2812 18.375H15.5C15.2016 18.375 14.9155 18.4935 14.7045 18.7045C14.4935 18.9155 14.375 19.2016 14.375 19.5C14.375 19.7984 14.4935 20.0845 14.7045 20.2955C14.9155 20.5065 15.2016 20.625 15.5 20.625H20C20.2984 20.625 20.5845 20.5065 20.7955 20.2955C21.0065 20.0845 21.125 19.7984 21.125 19.5V15C21.125 14.7016 21.0065 14.4155 20.7955 14.2045C20.5845 13.9935 20.2984 13.875 20 13.875ZM7.71875 5.625H9.5C9.79837 5.625 10.0845 5.50647 10.2955 5.2955C10.5065 5.08452 10.625 4.79837 10.625 4.5C10.625 4.20163 10.5065 3.91548 10.2955 3.7045C10.0845 3.49353 9.79837 3.375 9.5 3.375H5C4.70163 3.375 4.41548 3.49353 4.2045 3.7045C3.99353 3.91548 3.875 4.20163 3.875 4.5V9C3.875 9.29837 3.99353 9.58452 4.2045 9.7955C4.41548 10.0065 4.70163 10.125 5 10.125C5.29837 10.125 5.58452 10.0065 5.7955 9.7955C6.00647 9.58452 6.125 9.29837 6.125 9V7.21875L9.45406 10.5487C9.66541 10.7601 9.95205 10.8788 10.2509 10.8788C10.5498 10.8788 10.8365 10.7601 11.0478 10.5487C11.2592 10.3374 11.3779 10.0508 11.3779 9.75187C11.3779 9.45299 11.2592 9.16634 11.0478 8.955L7.71875 5.625Z"/>
</svg>

<svg viewBox="0 0 24 24" xmlns="http://www.w3.org/2000/svg" aria-hidden="true" fill="currentColor"><path d="M21.125 4.5V9a1.125 1.125 0 1 1-2.25 0V7.219l-3.33 3.33a1.127 1.127 0 1 1-1.593-1.594l3.33-3.33H15.5a1.125 1.125 0 0 1 0-2.25H20A1.125 1.125 0 0 1 21.125 4.5m-11.67 8.954-3.33 3.327V15a1.125 1.125 0 0 0-2.25 0v4.5A1.125 1.125 0 0 0 5 20.625h4.5a1.125 1.125 0 1 0 0-2.25H7.719l3.33-3.33a1.127 1.127 0 1 0-1.594-1.593zM20 13.875A1.125 1.125 0 0 0 18.875 15v1.781l-3.33-3.33a1.127 1.127 0 1 0-1.593 1.594l3.33 3.33H15.5a1.125 1.125 0 1 0 0 2.25H20a1.125 1.125 0 0 0 1.125-1.125V15A1.125 1.125 0 0 0 20 13.875M7.719 5.625H9.5a1.125 1.125 0 0 0 0-2.25H5A1.125 1.125 0 0 0 3.875 4.5V9a1.125 1.125 0 0 0 2.25 0V7.219l3.33 3.33a1.127 1.127 0 1 0 1.593-1.594z"/></svg>
